X: 7615
T:Polon\"as fr Sexdrega
R:Polonaise
M:3/4
N:Yorkshire Dales Scandy weekend, June '99; workshop tunes
O:Sweden
Z:photocopies from Suzanne Lind \& Louise Schultz
K:Dm
DD/F/ EE/F/ D2 | de/f/ (gf) (ed) | ^c>e (AG) FE|\
D>F EF/E/ D2 | de/f/ (gf) (ed) | (^c/d/)e/c/ d4 z2 ::
ab/a/ ga/g/ f2 | fe/f/ (gf) (ed) | ^c>e (AG) FE |\
a2 g2 f2 | fe/f/ (gf) (ed) | (^c/d/)e/c/ d2 z2 :|
